app/assets/images/payment_icons/addi.svg

<svg xmlns="http://www.w3.org/2000/svg" width="38" height="24" viewBox="0 0 38 24" fill="none" aria-labelledby="pi-addi" role="img"><title id="pi-addi">ADDI</title><rect width="38" height="24" fill="white"/><path d="M28.724 16.28H30.558V10.967H28.724V16.28ZM30.82 9.161C30.8188 9.00736 30.7874 8.85544 30.7275 8.71394C30.6676 8.57244 30.5804 8.44413 30.471 8.33632C30.3615 8.22851 30.2318 8.14332 30.0894 8.08561C29.947 8.02791 29.7946 7.99882 29.641 8C28.991 8 28.463 8.52 28.463 9.161C28.464 9.31465 28.4953 9.46659 28.5551 9.60814C28.6149 9.74969 28.7019 9.87808 28.8113 9.98598C28.9207 10.0939 29.0503 10.1792 29.1926 10.237C29.335 10.2948 29.4874 10.3241 29.641 10.323C30.291 10.323 30.818 9.803 30.818 9.161H30.82ZM24.807 14.626C24.6409 14.6272 24.4761 14.5956 24.3222 14.5332C24.1683 14.4707 24.0282 14.3785 23.9099 14.2619C23.7916 14.1452 23.6974 14.0064 23.6327 13.8534C23.5681 13.7004 23.5342 13.5361 23.533 13.37C23.533 12.676 24.103 12.113 24.807 12.113C25.511 12.113 26.081 12.676 26.081 13.37C26.081 14.063 25.511 14.626 24.807 14.626ZM27.92 13.37V8.303H26.08V10.666C25.733 10.446 25.261 10.323 24.807 10.323C23.088 10.323 21.694 11.687 21.694 13.369C21.694 15.052 23.088 16.416 24.807 16.416C26.469 16.416 27.92 15.155 27.92 13.37V13.37ZM17.979 14.626C17.8129 14.6272 17.6481 14.5956 17.4942 14.5332C17.3403 14.4707 17.2002 14.3785 17.0819 14.2619C16.9636 14.1452 16.8694 14.0064 16.8047 13.8534C16.7401 13.7004 16.7062 13.5361 16.705 13.37C16.705 12.676 17.275 12.113 17.979 12.113C18.683 12.113 19.253 12.676 19.253 13.37C19.253 14.063 18.683 14.626 17.979 14.626ZM21.092 13.37V8.303H19.252V10.666C18.904 10.446 18.433 10.323 17.979 10.323C16.259 10.323 14.866 11.687 14.866 13.369C14.866 15.052 16.26 16.416 17.979 16.416C19.641 16.416 21.092 15.155 21.092 13.37V13.37ZM11.113 11.874C10.53 11.874 10.033 12.234 9.839 12.741V11.054C9.839 10.36 10.409 9.798 11.113 9.798C11.816 9.798 12.387 10.36 12.387 11.054V12.742C12.2872 12.4856 12.112 12.2654 11.8846 12.1104C11.6572 11.9555 11.3882 11.873 11.113 11.874V11.874ZM12.387 13.697V16.252H14.221V11.176C14.223 11.136 14.226 11.096 14.226 11.054C14.226 9.372 12.832 8.008 11.113 8.008C9.393 8.008 8 9.372 8 11.054V16.252H9.834V13.68C10.026 14.193 10.526 14.559 11.113 14.559C11.687 14.559 12.178 14.209 12.378 13.713L12.387 13.696V13.697Z" fill="#4E7EFF"/></svg>

<svg width="38" height="24" viewBox="0 0 38 24" fill="none" xmlns="http://www.w3.org/2000/svg" role="img" aria-labelledby="pi-addi"><title id="pi-addi">ADDI</title><path opacity=".07" d="M35 0H3C1.3 0 0 1.3 0 3v18c0 1.7 1.4 3 3 3h32c1.7 0 3-1.3 3-3V3c0-1.7-1.4-3-3-3z" fill="#000"/><path d="M35 1c1.1 0 2 .9 2 2v18c0 1.1-.9 2-2 2H3c-1.1 0-2-.9-2-2V3c0-1.1.9-2 2-2h32z" fill="#fff"/><path d="M28.724 16.28h1.834v-5.313h-1.834v5.313zM30.82 9.161A1.17 1.17 0 0029.641 8c-.65 0-1.178.52-1.178 1.161a1.17 1.17 0 001.178 1.162c.65 0 1.177-.52 1.177-1.162zM24.807 14.626a1.265 1.265 0 01-1.274-1.256c0-.694.57-1.257 1.274-1.257.704 0 1.274.563 1.274 1.257 0 .693-.57 1.256-1.274 1.256zm3.113-1.256V8.303h-1.84v2.363c-.347-.22-.819-.343-1.273-.343-1.719 0-3.113 1.364-3.113 3.046 0 1.683 1.394 3.047 3.113 3.047 1.662 0 3.113-1.261 3.113-3.046zM17.979 14.626a1.265 1.265 0 01-1.274-1.256c0-.694.57-1.257 1.274-1.257.704 0 1.274.563 1.274 1.257 0 .693-.57 1.256-1.274 1.256zm3.113-1.256V8.303h-1.84v2.363c-.348-.22-.819-.343-1.273-.343-1.72 0-3.113 1.364-3.113 3.046 0 1.683 1.394 3.047 3.113 3.047 1.662 0 3.113-1.261 3.113-3.046zM11.113 11.874c-.583 0-1.08.36-1.274.867v-1.687c0-.694.57-1.256 1.274-1.256.703 0 1.274.562 1.274 1.256v1.688a1.362 1.362 0 00-1.274-.868zm1.274 1.823v2.555h1.834v-5.076c.002-.04.005-.08.005-.122 0-1.682-1.394-3.046-3.113-3.046C9.393 8.008 8 9.372 8 11.054v5.198h1.834V13.68c.192.513.692.879 1.279.879.574 0 1.065-.35 1.265-.846l.009-.017z" fill="#4E7EFF"/></svg>
